styles/1/Numix/22/actions/red-add-folders-to-archive.svg

<?xml version="1.0" encoding="UTF-8" standalone="no"?>
<svg
   xmlns:dc="http://purl.org/dc/elements/1.1/"
   xmlns:cc="http://creativecommons.org/ns#"
   xmlns:rdf="http://www.w3.org/1999/02/22-rdf-syntax-ns#"
   xmlns:svg="http://www.w3.org/2000/svg"
   xmlns="http://www.w3.org/2000/svg"
   xmlns:sodipodi="http://sodipodi.sourceforge.net/DTD/sodipodi-0.dtd"
   xmlns:inkscape="http://www.inkscape.org/namespaces/inkscape"
   width="22"
   height="22"
   viewBox="0 0 22 22"
   id="svg2"
   version="1.1"
   inkscape:version="0.91 r"
   sodipodi:docname="red-add-folders-to-archive.svg">
  <metadata
     id="metadata20">
    <rdf:RDF>
      <cc:Work
         rdf:about="">
        <dc:format>image/svg+xml</dc:format>
        <dc:type
           rdf:resource="http://purl.org/dc/dcmitype/StillImage" />
      </cc:Work>
    </rdf:RDF>
  </metadata>
  <defs
     id="defs18" />
  <sodipodi:namedview
     pagecolor="#ffffff"
     bordercolor="#666666"
     borderopacity="1"
     objecttolerance="10"
     gridtolerance="10"
     guidetolerance="10"
     inkscape:pageopacity="0"
     inkscape:pageshadow="2"
     inkscape:window-width="1366"
     inkscape:window-height="747"
     id="namedview16"
     showgrid="true"
     inkscape:zoom="10.727273"
     inkscape:cx="-1.1706054"
     inkscape:cy="17.221937"
     inkscape:window-x="0"
     inkscape:window-y="21"
     inkscape:window-maximized="1"
     inkscape:current-layer="svg2">
    <inkscape:grid
       type="xygrid"
       id="grid2997" />
  </sodipodi:namedview>
  <path
     style="font-size:medium;font-style:normal;font-variant:normal;font-weight:normal;font-stretch:normal;text-indent:0;text-align:start;text-decoration:none;line-height:normal;letter-spacing:normal;word-spacing:normal;text-transform:none;direction:ltr;block-progression:tb;writing-mode:lr-tb;text-anchor:start;baseline-shift:baseline;color:#000000;fill:#ef5350;fill-opacity:1;fill-rule:nonzero;stroke:none;stroke-width:1.52408636;marker:none;visibility:visible;display:inline;overflow:visible;enable-background:accumulate;font-family:Sans;-inkscape-font-specification:Sans;opacity:0.4"
     d="M 0.625 8 C 0.2775698 8.063546 -0.000147 8.3968062 0 8.75 L 0 21.25 C 0.00617 21.640979 0.3590206 21.99383 0.75 22 L 13 22 L 13 19 L 9 19 L 9 13 L 13 13 L 13 10 L 10 10 L 10 8.75 C 9.9938 8.3590206 9.640979 8.0061695 9.25 8 L 0.625 8 z "
     id="path2995" />
  <path
     style="font-size:medium;font-style:normal;font-variant:normal;font-weight:normal;font-stretch:normal;text-indent:0;text-align:start;text-decoration:none;line-height:normal;letter-spacing:normal;word-spacing:normal;text-transform:none;direction:ltr;block-progression:tb;writing-mode:lr-tb;text-anchor:start;baseline-shift:baseline;color:#000000;fill:#ef5350;fill-opacity:1;fill-rule:nonzero;stroke:none;stroke-width:1.52408636;marker:none;visibility:visible;display:inline;overflow:visible;enable-background:accumulate;font-family:Sans;-inkscape-font-specification:Sans"
     d="M 4.625 0 C 4.2775698 0.063546 3.999853 0.3968062 4 0.75 L 4 13.25 C 4.00617 13.640979 4.3590206 13.99383 4.75 14 L 9 14 L 9 13 L 13 13 L 13 9 L 19 9 L 19 13 L 22 13 L 22 2.8125 C 21.99383 2.4215206 21.640979 2.0061695 21.25 2 L 14 2 L 14 0.75 C 13.9938 0.3590206 13.640979 0.0061695 13.25 0 L 4.625 0 z "
     id="path3912" />
  <path
     style="fill:#859900"
     d="m 22,14 -4,0 0,-4 -4,0 0,4 -4,0 0,4 4,0 0,4 4,0 0,-4 4,0 z"
     id="path14" />
</svg>

<svg xmlns="http://www.w3.org/2000/svg" viewBox="0 0 22 22">
 <path d="m 0.625 8 c -0.347 0.064 -0.625 0.397 -0.625 0.75 l 0 12.5 c 0.006 0.391 0.359 0.744 0.75 0.75 l 12.25 0 l 0 -3 l -4 0 l 0 -6 l 4 0 l 0 -3 l -3 0 l 0 -1.25 c -0.006 -0.391 -0.359 -0.744 -0.75 -0.75 l -8.625 0 z" style="visibility:visible;fill:#ef5350;opacity:0.4;fill-opacity:1;stroke:none;display:inline;color:#000;fill-rule:nonzero"/>
 <path d="m 4.625 0 c -0.347 0.064 -0.625 0.397 -0.625 0.75 l 0 12.5 c 0.006 0.391 0.359 0.744 0.75 0.75 l 4.25 0 l 0 -1 l 4 0 l 0 -4 l 6 0 l 0 4 l 3 0 l 0 -10.188 c -0.006 -0.391 -0.359 -0.806 -0.75 -0.813 l -7.25 0 l 0 -1.25 c -0.006 -0.391 -0.359 -0.744 -0.75 -0.75 l -8.625 0 z" style="visibility:visible;fill:#ef5350;fill-opacity:1;stroke:none;display:inline;color:#000;fill-rule:nonzero"/>
 <path d="m 22 14 -4 0 0 -4 -4 0 0 4 -4 0 0 4 4 0 0 4 4 0 0 -4 4 0 z" style="fill:#859900"/>
</svg>
